assets/icons/24px/stroke/battery-horizontal-charging-24px.svg

<svg width="24" height="24" viewBox="0 0 24 24" fill="none" xmlns="http://www.w3.org/2000/svg">
<path d="M3 11C3 9.11438 3 8.17157 3.58579 7.58579C4.17157 7 5.11438 7 7 7H15C16.8856 7 17.8284 7 18.4142 7.58579C19 8.17157 19 9.11438 19 11V13C19 14.8856 19 15.8284 18.4142 16.4142C17.8284 17 16.8856 17 15 17H7C5.11438 17 4.17157 17 3.58579 16.4142C3 15.8284 3 14.8856 3 13V11Z" stroke="white" stroke-width="2" stroke-linecap="round" stroke-linejoin="round"/>
<path d="M19 12.5V11.5C19 10.9477 19.4477 10.5 20 10.5C20.5523 10.5 21 10.9477 21 11.5V12.5C21 13.0523 20.5523 13.5 20 13.5C19.4477 13.5 19 13.0523 19 12.5Z" fill="white" stroke="white" stroke-width="2" stroke-linecap="round" stroke-linejoin="round"/>
<path fill-rule="evenodd" clip-rule="evenodd" d="M15.9506 13.1924C15.7062 13.6877 15.1066 13.8912 14.6114 13.6468L11.9659 12.3417L11.9459 13.2715C11.9387 13.606 11.7647 13.9147 11.4823 14.0941C11.2 14.2735 10.8466 14.2998 10.5407 14.1641L6.59459 12.4141C6.08973 12.1902 5.86196 11.5995 6.08585 11.0946C6.30974 10.5897 6.90052 10.362 7.40538 10.5859L9.97868 11.727L10.0002 10.7285C10.0075 10.3868 10.1889 10.0725 10.4811 9.89512C10.7733 9.71778 11.1358 9.70197 11.4424 9.8532L15.4962 11.8532C15.9915 12.0976 16.1949 12.6972 15.9506 13.1924Z" fill="white"/>
</svg>

<svg width="24" height="24" fill="none" xmlns="http://www.w3.org/2000/svg"><path d="M3 11c0-1.886 0-2.828.586-3.414C4.172 7 5.114 7 7 7h8c1.886 0 2.828 0 3.414.586C19 8.172 19 9.114 19 11v2c0 1.886 0 2.828-.586 3.414C17.828 17 16.886 17 15 17H7c-1.886 0-2.828 0-3.414-.586C3 15.828 3 14.886 3 13v-2z" stroke="#fff" stroke-width="2" stroke-linecap="round" stroke-linejoin="round"/><path d="M19 12.5v-1a1 1 0 1 1 2 0v1a1 1 0 1 1-2 0z" fill="#fff" stroke="#fff" stroke-width="2" stroke-linecap="round" stroke-linejoin="round"/><path fill-rule="evenodd" clip-rule="evenodd" d="M15.95 13.192a1 1 0 0 1-1.339.455l-2.645-1.305-.02.93a1 1 0 0 1-1.405.892l-3.946-1.75a1 1 0 1 1 .81-1.828l2.574 1.141.021-.998a1 1 0 0 1 1.442-.876l4.054 2a1 1 0 0 1 .455 1.34z" fill="#fff"/></svg>
